dist/svg/u1F3F0.svg

<?xml version="1.0" encoding="UTF-8"?><svg id="Layer_1" xmlns="http://www.w3.org/2000/svg" viewBox="0 0 40 40"><rect width="40" height="40" style="fill:none;"/><g><path d="M5.66811,37.5h28.66377c1.10457,0,2-.89543,2-2V18.70227H3.66811v16.79773c0,1.10457,.89543,2,2,2Z" style="fill:#d0d5da;"/><path d="M27.61812,10.63051H12.38182l.00002,26.86949h15.23631l-.00004-26.86949Z" style="fill:#e5e9ee;"/><path d="M20,29.95338h0c1.51918,0,2.75256,1.23338,2.75256,2.75256v4.79405h-5.50513v-4.79405c0-1.51918,1.23338-2.75256,2.75256-2.75256Z" style="fill:#a96951;"/><g><path d="M29.14179,11.16876L20.86792,2.86056c-.47876-.48074-1.25708-.48074-1.73584,0L10.85821,11.16876H29.14179Z" style="fill:#ef4452;"/><path d="M10.85821,11.16876H29.14179v1.69935c0,.28168-.22869,.51037-.51037,.51037H11.36858c-.28168,0-.51037-.22869-.51037-.51037v-1.69935h0Z" style="fill:#d12030;"/></g><g><path d="M37.20326,18.91304l-4.36032-4.37841c-.47876-.48074-1.25708-.48074-1.73584,0l-4.36032,4.37841h10.45648Z" style="fill:#ef4452;"/><path d="M26.74678,18.91304h10.45648v1.69935c0,.28168-.22869,.51037-.51037,.51037h-9.43573c-.28168,0-.51037-.22869-.51037-.51037v-1.69935h0Z" style="fill:#d12030;"/></g><g><path d="M13.25322,18.91304l-4.36032-4.37841c-.47876-.48074-1.25708-.48074-1.73584,0l-4.36032,4.37841H13.25322Z" style="fill:#ef4452;"/><path d="M2.79674,18.91304H13.25322v1.69935c0,.28168-.22869,.51037-.51037,.51037H3.30711c-.28168,0-.51037-.22869-.51037-.51037v-1.69935h0Z" style="fill:#d12030;"/></g></g></svg>

<svg id="Layer_1" data-name="Layer 1" xmlns="http://www.w3.org/2000/svg" viewBox="0 0 40 40"><defs><style>.cls-1{fill:none;}.cls-2{fill:#d0d5da;}.cls-3{fill:#e5e9ee;}.cls-4{fill:#a96951;}.cls-5{fill:#ef4452;}.cls-6{fill:#d12030;}</style></defs><rect class="cls-1" width="40" height="40"/><path class="cls-2" d="M5.668,37.5H34.332a2,2,0,0,0,2-2V18.7H3.668V35.5A2,2,0,0,0,5.668,37.5Z"/><path class="cls-3" d="M27.618,10.631H12.382V37.5H27.618Z"/><path class="cls-4" d="M20,29.953h0a2.753,2.753,0,0,1,2.753,2.753V37.5a0,0,0,0,1,0,0H17.247a0,0,0,0,1,0,0V32.706A2.753,2.753,0,0,1,20,29.953Z"/><path class="cls-5" d="M29.142,11.169,20.868,2.861a1.225,1.225,0,0,0-1.736,0l-8.274,8.308Z"/><path class="cls-6" d="M10.858,11.169H29.142a0,0,0,0,1,0,0v1.7a.51.51,0,0,1-.51.51H11.369a.51.51,0,0,1-.51-.51v-1.7A0,0,0,0,1,10.858,11.169Z"/><path class="cls-5" d="M37.2,18.913l-4.36-4.378a1.225,1.225,0,0,0-1.736,0l-4.36,4.378Z"/><path class="cls-6" d="M26.747,18.913H37.2a0,0,0,0,1,0,0v1.7a.51.51,0,0,1-.51.51H27.257a.51.51,0,0,1-.51-.51v-1.7A0,0,0,0,1,26.747,18.913Z"/><path class="cls-5" d="M13.253,18.913l-4.36-4.378a1.225,1.225,0,0,0-1.736,0L2.8,18.913Z"/><path class="cls-6" d="M2.8,18.913H13.253a0,0,0,0,1,0,0v1.7a.51.51,0,0,1-.51.51H3.307a.51.51,0,0,1-.51-.51v-1.7A0,0,0,0,1,2.8,18.913Z"/></svg>
